X:89
T:Joe Kilmurray's
R:slip jig
D:Peter Carberry & P\'adraig McGovern
Z:hn-slipjig-89
M:9/8
L:1/8
K:Em
BGE EDE G2A | Bee edB dBA | BGE EDE ~G2A | Bcd AdG FED :| 
ded cAF GA/B/c | ded def gfe | df/e/d cAF ~G2A | Bcd AdG FED |
~d3 cAF GA/B/c | ded def gfe | fed cAF ~G2A | Bcd AdG FED || 
|: ~e3 ede f2d | efe edf afd | efe ede f2d | edB AdG FED :| 
|: ~B3 edB G2A | Bee efg fed | Bee edB G2A | Bcd AdG FED :|

